packages/foundations/assets/icons/functional/images/file/folder_open_28.svg

<svg width="28" height="28" viewBox="0 0 28 28" fill="none" xmlns="http://www.w3.org/2000/svg">
<g clip-path="url(#clip0_185_943)">
<path fill-rule="evenodd" clip-rule="evenodd" d="M12.6873 4.375C12.8773 4.375 13.1091 4.4332 13.3324 4.65416L16.5504 7.875H21.8748C23.2728 7.875 24.5006 9.00439 24.5006 10.5232V11.6604C25.3514 12.0946 26.1183 13.1309 25.8959 14.4315L24.7316 21.4315C24.5294 22.6446 23.5264 23.545 22.2892 23.625H5.85726C4.62753 23.625 3.49979 22.75 3.26798 21.4315L2.10131 14.4315C1.90828 13.2733 2.50529 12.166 3.49898 11.6603L3.49979 7C3.49979 5.60203 4.62828 4.375 6.12479 4.375H12.6873ZM4.65704 13.1309C4.10511 13.1685 3.75471 13.5915 3.83086 14.1847L4.99417 21.1438C5.05863 21.5306 5.37073 21.8227 5.75177 21.8687L22.1423 21.875C22.5344 21.875 22.9311 21.588 23.0054 21.1438L24.1669 14.1847C24.2468 13.5499 23.8479 13.1835 23.3624 13.1309H4.65704ZM12.3242 6.125H6.12479C5.67606 6.125 5.24931 6.48031 5.24931 7V11.375H22.7493L22.7498 10.5C22.7498 10.0513 22.3778 9.65698 21.8748 9.625H16.1873C15.9939 9.625 15.7354 9.5414 15.5686 9.36872L12.3242 6.125Z" fill="#1A1C1F"/>
</g>
<defs>
<clipPath id="clip0_185_943">
<rect width="28" height="28" fill="white"/>
</clipPath>
</defs>
</svg>

<svg xmlns="http://www.w3.org/2000/svg" width="28" height="28" fill="none"><g clip-path="url(#a)"><path fill="#1A1C1F" fill-rule="evenodd" d="M12.687 4.375c.19 0 .422.058.645.28l3.218 3.22h5.325a2.634 2.634 0 0 1 2.626 2.648v1.137c.85.435 1.617 1.47 1.395 2.771l-1.164 7a2.63 2.63 0 0 1-2.443 2.194H5.857a2.634 2.634 0 0 1-2.589-2.193l-1.167-7A2.63 2.63 0 0 1 3.5 11.66V7c0-1.398 1.13-2.625 2.626-2.625zm-8.03 8.756c-.552.037-.902.46-.826 1.054l1.163 6.959a.875.875 0 0 0 .758.725l16.39.006a.885.885 0 0 0 .863-.731l1.162-6.96c.08-.634-.32-1-.805-1.053zm7.667-7.006h-6.2A.874.874 0 0 0 5.25 7v4.375h17.5V10.5c0-.449-.371-.843-.874-.875h-5.688a.9.9 0 0 1-.618-.256z" clip-rule="evenodd"/></g><defs><clipPath id="a"><path fill="#fff" d="M0 0h28v28H0z"/></clipPath></defs></svg>
